svgs/sharp-light/lari-sign.svg

<svg xmlns="http://www.w3.org/2000/svg" viewBox="0 0 384 512"><!--! Font Awesome Pro 6.6.0 by @fontawesome - https://fontawesome.com License - https://fontawesome.com/license (Commercial License) Copyright 2024 Fonticons, Inc. --><path d="M160 32l0 66.7c10.4-1.7 21.1-2.7 32-2.7s21.6 .9 32 2.7L224 32l32 0 0 74.9c74.6 26.4 128 97.5 128 181.1l-32 0c0-65.6-39.5-122-96-146.7L256 288l-32 0 0-156.8c-10.3-2.1-21-3.2-32-3.2s-21.7 1.1-32 3.2L160 288l-32 0 0-146.7C71.5 166 32 222.4 32 288c0 88.4 71.6 160 160 160l192 0 0 32-192 0L0 480l0-32 85.8 0C34.1 413.6 0 354.8 0 288c0-83.6 53.4-154.7 128-181.1L128 32l32 0z"/></svg>

<svg xmlns="http://www.w3.org/2000/svg" viewBox="0 0 384 512"><!--! Font Awesome Pro 6.5.2 by @fontawesome - https://fontawesome.com License - https://fontawesome.com/license (Commercial License) Copyright 2024 Fonticons, Inc. --><path d="M160 32V98.7c10.4-1.7 21.1-2.7 32-2.7s21.6 .9 32 2.7V32h32v74.9c74.6 26.4 128 97.5 128 181.1H352c0-65.6-39.5-122-96-146.7L256 288H224l0-156.8c-10.3-2.1-21-3.2-32-3.2s-21.7 1.1-32 3.2L160 288H128l0-146.7C71.5 166 32 222.4 32 288c0 88.4 71.6 160 160 160H384v32H192 0V448H85.8C34.1 413.6 0 354.8 0 288c0-83.6 53.4-154.7 128-181.1V32h32z"/></svg>
